app/assets/images/heroicons/micro/folder-plus.svg

<svg width="16" height="16" viewBox="0 0 16 16" fill="none" xmlns="http://www.w3.org/2000/svg">
<path fill-rule="evenodd" clip-rule="evenodd" d="M3.5 2C2.67157 2 2 2.67157 2 3.5V12.5C2 13.3284 2.67157 14 3.5 14H12.5C13.3284 14 14 13.3284 14 12.5V5.5C14 4.67157 13.3284 4 12.5 4H9.62132C9.2235 4 8.84196 3.84197 8.56066 3.56066L7.43934 2.43934C7.15804 2.15804 6.7765 2 6.37868 2H3.5ZM8 6C8.41421 6 8.75 6.33579 8.75 6.75V8.25H10.25C10.6642 8.25 11 8.58579 11 9C11 9.41421 10.6642 9.75 10.25 9.75H8.75V11.25C8.75 11.6642 8.41421 12 8 12C7.58579 12 7.25 11.6642 7.25 11.25V9.75H5.75C5.33579 9.75 5 9.41421 5 9C5 8.58579 5.33579 8.25 5.75 8.25H7.25V6.75C7.25 6.33579 7.58579 6 8 6Z" fill="black"/>
</svg>

<svg xmlns="http://www.w3.org/2000/svg" viewBox="0 0 16 16" fill="currentColor" aria-hidden="true" data-slot="icon">
  <path fill-rule="evenodd" d="M3.5 2A1.5 1.5 0 0 0 2 3.5v9A1.5 1.5 0 0 0 3.5 14h9a1.5 1.5 0 0 0 1.5-1.5v-7A1.5 1.5 0 0 0 12.5 4H9.621a1.5 1.5 0 0 1-1.06-.44L7.439 2.44A1.5 1.5 0 0 0 6.38 2H3.5ZM8 6a.75.75 0 0 1 .75.75v1.5h1.5a.75.75 0 0 1 0 1.5h-1.5v1.5a.75.75 0 0 1-1.5 0v-1.5h-1.5a.75.75 0 0 1 0-1.5h1.5v-1.5A.75.75 0 0 1 8 6Z" clip-rule="evenodd"/>
</svg>
